public/assets/imgs/error.svg

<svg fill="none" height="32" viewBox="0 0 32 32" width="32" xmlns="http://www.w3.org/2000/svg"><circle cx="16" cy="16" fill="#ff765c" r="16"/><path clip-rule="evenodd" d="m6.58579 6.58579c.78104-.78105 2.04738-.78105 2.82842 0l6.33579 6.33581 6.3358-6.33581c.781-.78105 2.0474-.78105 2.8284 0 .7811.78104.7811 2.04738 0 2.82842l-6.3358 6.33579 6.3358 6.3358c.7811.781.7811 2.0474 0 2.8284-.781.7811-2.0474.7811-2.8284 0l-6.3358-6.3358-6.33579 6.3358c-.78104.7811-2.04738.7811-2.82842 0-.78105-.781-.78105-2.0474 0-2.8284l6.33581-6.3358-6.33581-6.33579c-.78105-.78104-.78105-2.04738 0-2.82842z" fill="#fff" fill-rule="evenodd"/></svg>

<svg width="32" height="32" viewBox="0 0 32 32" fill="none" xmlns="http://www.w3.org/2000/svg">
<circle cx="16" cy="16" r="16" fill="#FF765C"/>
<path fill-rule="evenodd" clip-rule="evenodd" d="M6.58579 6.58579C7.36683 5.80474 8.63317 5.80474 9.41421 6.58579L15.75 12.9216L22.0858 6.58579C22.8668 5.80474 24.1332 5.80474 24.9142 6.58579C25.6953 7.36683 25.6953 8.63317 24.9142 9.41421L18.5784 15.75L24.9142 22.0858C25.6953 22.8668 25.6953 24.1332 24.9142 24.9142C24.1332 25.6953 22.8668 25.6953 22.0858 24.9142L15.75 18.5784L9.41421 24.9142C8.63317 25.6953 7.36683 25.6953 6.58579 24.9142C5.80474 24.1332 5.80474 22.8668 6.58579 22.0858L12.9216 15.75L6.58579 9.41421C5.80474 8.63317 5.80474 7.36683 6.58579 6.58579Z" fill="white"/>
</svg>
